X:1
T:Title
%%score [ ( 1 2 ) ( 3 4 ) ]
L:1/8
Q:1/4=240
M:4/4
K:Eb
V:1 treble nm="Midi_74"
V:2 treble 
V:3 bass nm="Midi_74"
V:4 bass 
V:1
"^Psalm 10 vv 1-12" G8 | G4 G4 | G8 || G8 | A4 E4 | E4 F4 | G8 || G8 | F4 F4 | B8 || c8 | B4 G4 | %12
 F4 F4 |"^Thomas Attwood" E8 |] %14
V:2
 B,8 | =B,4 B,4 | C8 || _D8 | C4 C4 | C4 C4 | D8 || D8 | D4 D4 | E8 || E8 | E4 E4 | E4 D4 | E8 |] %14
V:3
 G,8 | F,4 F,4 | E,8 || E,8 | E,4 A,4 | A,4 C4 | =B,8 || =B,8 | !courtesy!_B,4 B,4 | B,8 || A,8 | %11
 B,4 E4 | C4 B,2 A,2 | G,8 |] %14
V:4
 E,8 | D,4 D,4 | C,8 || B,,8 | A,,4 A,,4 | A,4 A,4 | G,8 || G,8 | A,4 A,4 | G,8 || A,8 | G,4 C,4 | %12
 A,,4 B,,4 | E,8 |] %14

